X: 305620
M: 2/4
L: 1/16
K: G
|:\
z2 |\
g>ag>e g>dd>g | e>fg>a b>ef>g |\
g>ag>e d>Bg>e | d>cB>A [G4E4][G2E2] :|
|: D2 |\
|:\
z2 |\
g>ag>e g>dd>g | e>fg>a b>ef>g |\
g>ag>e d>Bg>e | d>cB>A [G4E4][G2E2] :|


